!!!OTL: HOPP HOPP HOPP MEIN KINDCHEN
!!!ARE: Europa, Mitteleuropa, Deutschland
!!!SCT: F0256
!!!YEM: Copyright 1995, estate of Helmut Schaffrath.
**kern
*ICvox
*Ivox
*M2/4
*k[b-e-a-]
*E-:
=1
{8e-
8g
8b-
8cc
=2
4b-
8ee-}
{8e-
=3
8e-
8g
8b-
8cc
=4
4b-
8ee-}
{8b-
=5
8ff
8dd
8b-
8a-
=6
8g
8b-
8ee-}
{8b-
=7
8ff
8dd
8b-
8a-
=8
8g
8b-
4e-}
=9
{8a-
8b-
8cc
8dd
=10
8ee-
4r}
{8b-
=11
8a-
8g
8a-
8f
=12
4e-
4r}
==
!!!AGN: Jugend - Lied, Kinder, Spiel, Kniereiter - Lied
!!!ONB: ESAC (Essen Associative Code) Database: FINK
!!!AMT: simple duple
!!!AIN: vox
!!!EED: Helmut Schaffrath
!!!EEV: 1.0
*-
